X:13
T:Lord Beichan
Z:Jack Campin, http://www.campin.me.uk/
S:Northumbrian Minstrelsy
M:3/4
L:1/8
K:G
  D |G A B2 (AG)|c  B A3 \
  D |G A B2  c2 |d ^c d3
  D |B c d2  c2 |A  G F2 \
(GA)|B c d2  c2 |A  G G3|]

